svgs/sharp-light/file-eps.svg

<svg xmlns="http://www.w3.org/2000/svg" viewBox="0 0 512 512"><!--! Font Awesome Pro 6.6.0 by @fontawesome - https://fontawesome.com License - https://fontawesome.com/license (Commercial License) Copyright 2024 Fonticons, Inc. --><path d="M352 192l0 112 32 0 0-152L232 0 32 0 0 0 0 32 0 480l0 32 32 0 80 0 0-32-80 0L32 32l160 0 0 144 0 16 16 0 144 0zm-5.3-32L224 160l0-122.7L346.7 160zM160 352l0 16 0 64 0 64 0 16 16 0 64 0 16 0 0-32-16 0-48 0 0-32 32 0 16 0 0-32-16 0-32 0 0-32 48 0 16 0 0-32-16 0-64 0-16 0zm144 0l-16 0 0 16 0 80 0 48 0 16 32 0 0-16 0-32 16 0c30.9 0 56-25.1 56-56s-25.1-56-56-56l-32 0zm32 80l-16 0 0-48 16 0c13.3 0 24 10.7 24 24s-10.7 24-24 24zm117.7-80c-25.2 0-45.7 20.4-45.7 45.7c0 17.3 9.8 33.1 25.2 40.8l31.2 15.6c4.6 2.3 7.6 7 7.6 12.2c0 7.5-6.1 13.7-13.7 13.7L424 480l-16 0 0 32 16 0 34.3 0c25.2 0 45.7-20.4 45.7-45.7c0-17.3-9.8-33.1-25.2-40.8l-31.2-15.6c-4.6-2.3-7.6-7-7.6-12.2c0-7.5 6.1-13.7 13.7-13.7l26.3 0 16 0 0-32-16 0-26.3 0z"/></svg>

<svg xmlns="http://www.w3.org/2000/svg" viewBox="0 0 512 512"><!--! Font Awesome Pro 6.5.2 by @fontawesome - https://fontawesome.com License - https://fontawesome.com/license (Commercial License) Copyright 2024 Fonticons, Inc. --><path d="M352 192v96h32V152L232 0H32 0V32 480v32H32 96V480H32V32H192V176v16h16H352zm-5.3-32H224V37.3L346.7 160zM160 352v16 64 64 16h16 64 16V480H240 192V448h32 16V416H224 192V384h48 16V352H240 176 160zm144 0H288v16 80 48 16h32V496 464h16c30.9 0 56-25.1 56-56s-25.1-56-56-56H304zm32 80H320V384h16c13.3 0 24 10.7 24 24s-10.7 24-24 24zm117.7-80c-25.2 0-45.7 20.4-45.7 45.7c0 17.3 9.8 33.1 25.2 40.8l31.2 15.6c4.6 2.3 7.6 7 7.6 12.2c0 7.5-6.1 13.7-13.7 13.7H424 408v32h16 34.3c25.2 0 45.7-20.4 45.7-45.7c0-17.3-9.8-33.1-25.2-40.8l-31.2-15.6c-4.6-2.3-7.6-7-7.6-12.2c0-7.5 6.1-13.7 13.7-13.7H480h16V352H480 453.7z"/></svg>
